Newaita-dark/apps/scalable/preferences-system-bluetooth.svg

<?xml version="1.0" encoding="UTF-8"?>
<svg xmlns="http://www.w3.org/2000/svg" xmlns:xlink="http://www.w3.org/1999/xlink" width="512pt" height="512pt" viewBox="0 0 512 512" version="1.1">
<defs>
<radialGradient id="radial0" gradientUnits="userSpaceOnUse" cx="450.908936" cy="189.579361" fx="450.908936" fy="189.579361" r="21.166656" gradientTransform="matrix(0.00000278673,-1.250119,-2.250215,-0.00000162462,712.37043,1017.52527)">
<stop offset="0" style="stop-color:rgb(0%,0%,0%);stop-opacity:0.313725;"/>
<stop offset="0.222222" style="stop-color:rgb(0%,0%,0%);stop-opacity:0.27451;"/>
<stop offset="1" style="stop-color:rgb(0%,0%,0%);stop-opacity:0;"/>
</radialGradient>
<radialGradient id="radial1" gradientUnits="userSpaceOnUse" cx="450.908936" cy="189.579361" fx="450.908936" fy="189.579361" r="21.166656" gradientTransform="matrix(-0.00000278673,1.250119,2.250215,0.00000162462,-204.321898,-120.439713)">
<stop offset="0" style="stop-color:rgb(0%,0%,0%);stop-opacity:0.313725;"/>
<stop offset="0.222222" style="stop-color:rgb(0%,0%,0%);stop-opacity:0.27451;"/>
<stop offset="1" style="stop-color:rgb(0%,0%,0%);stop-opacity:0;"/>
</radialGradient>
<radialGradient id="radial2" gradientUnits="userSpaceOnUse" cx="450.908936" cy="189.579361" fx="450.908936" fy="189.579361" r="21.166656" gradientTransform="matrix(-0.00000278673,-1.250119,2.250215,-0.00000162462,-204.321898,1017.52527)">
<stop offset="0" style="stop-color:rgb(0%,0%,0%);stop-opacity:0.313725;"/>
<stop offset="0.222222" style="stop-color:rgb(0%,0%,0%);stop-opacity:0.27451;"/>
<stop offset="1" style="stop-color:rgb(0%,0%,0%);stop-opacity:0;"/>
</radialGradient>
<radialGradient id="radial3" gradientUnits="userSpaceOnUse" cx="450.908936" cy="189.579361" fx="450.908936" fy="189.579361" r="21.166656" gradientTransform="matrix(0.00000278673,1.250119,-2.250215,0.00000162462,712.3704,-120.43972)">
<stop offset="0" style="stop-color:rgb(0%,0%,0%);stop-opacity:0.313725;"/>
<stop offset="0.222222" style="stop-color:rgb(0%,0%,0%);stop-opacity:0.27451;"/>
<stop offset="1" style="stop-color:rgb(0%,0%,0%);stop-opacity:0;"/>
</radialGradient>
<linearGradient id="linear0" gradientUnits="userSpaceOnUse" x1="255.323059" y1="233.5" x2="255.323044" y2="254.666656" gradientTransform="matrix(0.213761,0,0,1.000095,199.446179,215.020539)">
<stop offset="0" style="stop-color:rgb(0%,0%,0%);stop-opacity:0.27451;"/>
<stop offset="1" style="stop-color:rgb(0%,0%,0%);stop-opacity:0;"/>
</linearGradient>
<linearGradient id="linear1" gradientUnits="userSpaceOnUse" x1="254" y1="233.5" x2="254" y2="-168.666672" gradientTransform="matrix(1.000095,0,0,1.000095,0,215.020531)">
<stop offset="0" style="stop-color:rgb(24.705882%,31.764706%,70.980392%);stop-opacity:1;"/>
<stop offset="1" style="stop-color:rgb(36.078431%,41.960784%,75.294118%);stop-opacity:1;"/>
</linearGradient>
<linearGradient id="linear2" gradientUnits="userSpaceOnUse" x1="264.583344" y1="-94.583328" x2="264.583344" y2="159.416672" >
<stop offset="0" style="stop-color:rgb(87.843137%,87.843137%,87.843137%);stop-opacity:1;"/>
<stop offset="1" style="stop-color:rgb(74.117647%,74.117647%,74.117647%);stop-opacity:1;"/>
</linearGradient>
</defs>
<g id="surface1">
<path style=" stroke:none;fill-rule:nonzero;fill:url(#radial0);" d="M 291.070312 448.542969 L 333.40625 448.542969 L 333.40625 427.375 L 291.070312 427.375 Z M 291.070312 448.542969 "/>
<path style=" stroke:none;fill-rule:nonzero;fill:url(#radial1);" d="M 216.980469 448.542969 L 174.640625 448.542969 L 174.640625 469.710938 L 216.980469 469.710938 Z M 216.980469 448.542969 "/>
<path style=" stroke:none;fill-rule:nonzero;fill:url(#radial2);" d="M 216.980469 448.542969 L 174.640625 448.542969 L 174.640625 427.375 L 216.980469 427.375 Z M 216.980469 448.542969 "/>
<path style=" stroke:none;fill-rule:nonzero;fill:url(#radial3);" d="M 291.070312 448.542969 L 333.40625 448.542969 L 333.40625 469.710938 L 291.070312 469.710938 Z M 291.070312 448.542969 "/>
<path style=" stroke:none;fill-rule:nonzero;fill:url(#linear0);" d="M 216.980469 443.25 L 291.070312 443.25 L 291.070312 469.710938 L 216.980469 469.710938 Z M 216.980469 443.25 "/>
<path style=" stroke:none;fill-rule:nonzero;fill:url(#linear1);" d="M 254.023438 46.335938 C 324.171875 46.335938 381.035156 103.203125 381.035156 173.351562 L 381.035156 321.53125 C 381.035156 391.675781 324.171875 448.542969 254.023438 448.542969 C 183.878906 448.542969 127.011719 391.675781 127.011719 321.53125 L 127.011719 173.351562 C 127.011719 103.203125 183.878906 46.335938 254.023438 46.335938 Z M 254.023438 46.335938 "/>
<path style="fill-rule:nonzero;fill:url(#linear2);stroke-width:3;stroke-linecap:square;stroke-linejoin:round;stroke:rgb(12.941177%,12.941177%,12.941177%);stroke-opacity:1;stroke-miterlimit:4;" d="M 252.417302 -94.960682 C 243.621267 -94.960682 236.543817 -85.520177 236.543817 -73.794734 L 236.543817 -1.899256 L 185.818193 -52.624881 L 178.334532 -45.141221 C 170.042356 -36.849044 170.042356 -23.498756 178.334532 -15.206579 L 225.583927 32.042815 L 178.334532 79.288303 C 170.042356 87.58048 170.042356 100.930768 178.334532 109.222945 L 185.818193 116.706605 L 236.543817 65.98098 L 236.543817 137.872552 C 236.543817 149.601901 243.621267 159.0385 252.417302 159.0385 C 263.002228 159.042406 273.844943 160.741462 283.105777 154.124907 L 328.003833 109.222945 C 336.29601 100.930768 336.29601 87.58048 328.003833 79.288303 L 280.758345 32.042815 L 328.003833 -15.206579 C 336.29601 -23.498756 336.29601 -36.849044 328.003833 -45.141221 L 283.105777 -90.043183 C 276.231434 -96.280868 263.002228 -94.960682 252.417302 -94.960682 Z M 268.290786 -59.952306 L 290.585532 -37.65756 C 294.733573 -33.513425 294.733573 -26.838281 290.585532 -22.69024 L 268.290786 -0.395494 Z M 268.290786 64.477218 L 290.585532 86.771963 C 294.733573 90.920005 294.733573 97.595149 290.585532 101.739284 L 268.290786 124.03403 Z M 268.290786 64.477218 " transform="matrix(1.000095,0,0,1.000095,0,215.020531)"/>
<path style=" stroke:none;fill-rule:nonzero;fill:rgb(100%,100%,100%);fill-opacity:0.392157;" d="M 254.023438 46.335938 C 183.660156 46.335938 127.011719 102.984375 127.011719 173.351562 L 127.011719 181.289062 C 127.011719 110.921875 183.660156 54.277344 254.023438 54.277344 C 324.390625 54.277344 381.035156 110.921875 381.035156 181.289062 L 381.035156 173.351562 C 381.035156 102.984375 324.390625 46.335938 254.023438 46.335938 Z M 254.023438 46.335938 "/>
<path style=" stroke:none;fill-rule:nonzero;fill:rgb(0%,0%,0%);fill-opacity:0.235294;" d="M 127.011719 318.082031 L 127.011719 321.53125 C 127.011719 391.894531 183.660156 448.542969 254.023438 448.542969 C 324.390625 448.542969 381.035156 391.894531 381.035156 321.53125 L 381.035156 318.082031 C 381.035156 388.449219 324.390625 445.097656 254.023438 445.097656 C 183.660156 445.097656 127.011719 388.449219 127.011719 318.082031 Z M 127.011719 318.082031 "/>
<path style=" stroke:none;fill-rule:nonzero;fill:rgb(12.941177%,12.941177%,12.941177%);fill-opacity:1;" d="M 254.023438 44.839844 C 182.855469 44.839844 125.511719 102.179688 125.511719 173.351562 L 125.511719 321.53125 C 125.511719 392.699219 182.855469 450.042969 254.023438 450.042969 C 325.195312 450.042969 382.535156 392.699219 382.535156 321.53125 L 382.535156 173.351562 C 382.535156 102.179688 325.195312 44.839844 254.023438 44.839844 Z M 254.023438 47.839844 C 323.582031 47.839844 379.535156 103.789062 379.535156 173.351562 L 379.535156 321.53125 C 379.535156 391.089844 323.582031 447.042969 254.023438 447.042969 C 184.464844 447.042969 128.511719 391.089844 128.511719 321.53125 L 128.511719 173.351562 C 128.511719 103.789062 184.464844 47.839844 254.023438 47.839844 Z M 254.023438 47.839844 "/>
</g>
</svg>

<svg xmlns="http://www.w3.org/2000/svg" width="512pt" height="512pt" viewBox="0 0 512 512"><defs><radialGradient id="a" gradientUnits="userSpaceOnUse" cx="450.909" cy="189.579" fx="450.909" fy="189.579" r="21.167" gradientTransform="matrix(0 -1.25012 -2.25021 0 712.37 1017.525)"><stop offset="0" stop-opacity=".314"/><stop offset=".222" stop-opacity=".275"/><stop offset="1" stop-opacity="0"/></radialGradient><radialGradient id="b" gradientUnits="userSpaceOnUse" cx="450.909" cy="189.579" fx="450.909" fy="189.579" r="21.167" gradientTransform="matrix(0 1.25012 2.25021 0 -204.322 -120.44)"><stop offset="0" stop-opacity=".314"/><stop offset=".222" stop-opacity=".275"/><stop offset="1" stop-opacity="0"/></radialGradient><radialGradient id="c" gradientUnits="userSpaceOnUse" cx="450.909" cy="189.579" fx="450.909" fy="189.579" r="21.167" gradientTransform="matrix(0 -1.25012 2.25021 0 -204.322 1017.525)"><stop offset="0" stop-opacity=".314"/><stop offset=".222" stop-opacity=".275"/><stop offset="1" stop-opacity="0"/></radialGradient><radialGradient id="d" gradientUnits="userSpaceOnUse" cx="450.909" cy="189.579" fx="450.909" fy="189.579" r="21.167" gradientTransform="matrix(0 1.25012 -2.25021 0 712.37 -120.44)"><stop offset="0" stop-opacity=".314"/><stop offset=".222" stop-opacity=".275"/><stop offset="1" stop-opacity="0"/></radialGradient><linearGradient id="e" gradientUnits="userSpaceOnUse" x1="255.323" y1="233.5" x2="255.323" y2="254.667" gradientTransform="matrix(.21376 0 0 1.0001 199.446 215.02)"><stop offset="0" stop-opacity=".275"/><stop offset="1" stop-opacity="0"/></linearGradient><linearGradient id="f" gradientUnits="userSpaceOnUse" x1="254" y1="233.5" x2="254" y2="-168.667" gradientTransform="matrix(1.0001 0 0 1.0001 0 215.02)"><stop offset="0" stop-color="#3f51b5"/><stop offset="1" stop-color="#5c6bc0"/></linearGradient><linearGradient id="g" gradientUnits="userSpaceOnUse" x1="264.583" y1="-94.583" x2="264.583" y2="159.417"><stop offset="0" stop-color="#e0e0e0"/><stop offset="1" stop-color="#bdbdbd"/></linearGradient></defs><path d="M291.07 448.543h42.336v-21.168H291.07zm0 0" fill="url(#a)"/><path d="M216.98 448.543h-42.34v21.168h42.34zm0 0" fill="url(#b)"/><path d="M216.98 448.543h-42.34v-21.168h42.34zm0 0" fill="url(#c)"/><path d="M291.07 448.543h42.336v21.168H291.07zm0 0" fill="url(#d)"/><path d="M216.98 443.25h74.09v26.46h-74.09zm0 0" fill="url(#e)"/><path d="M254.023 46.336c70.149 0 127.012 56.867 127.012 127.016v148.18c0 70.144-56.863 127.011-127.012 127.011-70.144 0-127.011-56.867-127.011-127.012v-148.18c0-70.148 56.867-127.015 127.011-127.015zm0 0" fill="url(#f)"/><path d="M252.417-94.96c-8.796 0-15.873 9.44-15.873 21.165v71.896l-50.726-50.726-7.483 7.484a21.12 21.12 0 0 0 0 29.934l47.249 47.25-47.25 47.245a21.12 21.12 0 0 0 0 29.935l7.484 7.484 50.726-50.726v71.892c0 11.729 7.077 21.166 15.873 21.166 10.585.003 21.428 1.702 30.689-4.914l44.898-44.902a21.12 21.12 0 0 0 0-29.935l-47.246-47.245 47.246-47.25a21.12 21.12 0 0 0 0-29.934l-44.898-44.902c-6.875-6.238-20.104-4.918-30.689-4.918zm15.874 35.008l22.295 22.294a10.557 10.557 0 0 1 0 14.968L268.29-.395zm0 124.43l22.295 22.294a10.557 10.557 0 0 1 0 14.967l-22.295 22.295zm0 0" transform="matrix(1.0001 0 0 1.0001 0 215.02)" fill="url(#g)" stroke-width="3" stroke-linecap="square" stroke-linejoin="round" stroke="#212121"/><path d="M254.023 46.336c-70.363 0-127.011 56.648-127.011 127.016v7.937c0-70.367 56.648-127.012 127.011-127.012 70.368 0 127.012 56.645 127.012 127.012v-7.937c0-70.368-56.644-127.016-127.012-127.016zm0 0" fill="#fff" fill-opacity=".392"/><path d="M127.012 318.082v3.45c0 70.363 56.648 127.011 127.011 127.011 70.368 0 127.012-56.648 127.012-127.012v-3.449c0 70.367-56.644 127.016-127.012 127.016-70.363 0-127.011-56.649-127.011-127.016zm0 0" fill-opacity=".235"/><path d="M254.023 44.84c-71.168 0-128.511 57.34-128.511 128.512v148.18c0 71.167 57.343 128.511 128.511 128.511 71.172 0 128.512-57.344 128.512-128.512v-148.18c0-71.171-57.34-128.511-128.512-128.511zm0 3c69.559 0 125.512 55.95 125.512 125.512v148.18c0 69.558-55.953 125.511-125.512 125.511-69.558 0-125.511-55.953-125.511-125.512v-148.18c0-69.562 55.953-125.511 125.511-125.511zm0 0" fill="#212121"/></svg>
